X: 14665
T: Gan Ainm
R: polka
M: 2/4
K: Gmajor
|:G>A BG|A/B/A/G/ ED|G/F/G/A/ Bd|A>B AG|
G>A BG|A/B/A/G/ Ee|dg B/c/B/A/|1 G2 GD:|2 G2 Gf||
|:gf gB|A/B/A/G/ Ef|gd gB|A>B Ad|
gf gB|A/B/A/G/ Ee|dg B/c/B/A/|1 G2 Gf:|2 G2 GD||

